X: 4326
M: 12/8
L: 1/8
K: G
|:\
[1 def g2G ABc d2D | d3- dcA G3- Gzz |]\
Ezz Fzz GFE B3- | BF^D FzF F3- Fzz |\
[2 def gzB d3 dcA | GzD EDB, | G,2z z2z |]


